!!!!SEGMENT: pl-cz--iii-743--001-001_zebrowski-marcin-jozef--magnificat-magnificat.krn
!!!cenid: 17xx:2332
!!!COM: Żebrowski, Marcin Józef
!!!COM-rismID: pe30020322
!!!CDT: 1702-1770/06/29
!!!CNT: Polish
!!!OPR: Magnificat
!!!OTL: Magnificat
!!!OMV: 001
!!!PDT:
!!!AGN:
!!!YEC: Copyright 2022 Narodowy Instytut Fryderyka Chopina (https://polishscores.org)
!!!YEM: License CC-BY-4.0 (https://creativecommons.org/licenses/by/4.0)
!!!SMS-siglum: PL-CZ
!!!SMS-shelfmark: III-743
!!!SMS-shelfwork: 001-001 M
!!!SMS-variant: Baſso. pro Organo.: PL-CZ III-743:24
!!!SMS-altvar: Organo.: PL-CZ III-743:28
!!!NIFC-rismSourceID: 300033495
!!!NIFC-rismChildID: 300033495
!!!NIFC-islandoraID: pl-cz:25228
!!!URL-pdf-islandora: https://repozytorium.nifc.pl/islandora/object/pl-cz%3A25228/datastream/PDF/view
!!!URL-scan: https://polish.musicsources.pl/pl/lokalizacje/galeria/rekopisy/1473 @EN{Scan on Polish Music Sources Website} @PL{Skany w portalu Dziedzictwo Muzyki Polskiej w otwartym dostępie}
!!!IIIF:
!!!ONB-nifc: UWAGA: części Magnificatu: 1. Magnificat, 2. Et exultavit, 3. Quia respexit, 4. Quia fecit, 5. Et misericordia, 6. Fecit potentiam, 7. Deposuit potentes, 8. Esurientes implevit bonis, 9. Suscepit Israel, 10. Sicut locutus, 11. Gloria patri (razem z Sicut erat i Amen)
!!!AIN: 1 alto 1 bass 2 cor 1 soprn 1 tenor 1 viola 2 violn
!!!OMD:
!!!OMD-mod: Allegro
!!!key: G
**kern	**fba	**kern	**kern	**kern	**kern	**text	**mod-text	**kern	**text	**mod-text	**kern	**text	**mod-text	**kern	**text	**mod-text	**kern	**kern
*	*	*group3	*group3	*group3	*group2	*	*	*group2	*	*	*group2	*	*	*group2	*	*	*group1	*group1
*part10	*	*part9	*part8	*part7	*part6	*	*	*part5	*	*	*part4	*	*	*part3	*	*	*part2	*part1
*staff10	*	*staff9	*staff8	*staff7	*staff6	*	*	*staff5	*	*	*staff4	*	*	*staff3	*	*	*staff2	*staff1
*I"Baſso. pro Organo.	*	*I"Viola Oblig:	*I"Violino Secondo.	*I"Violino Primo.	*I"Baſso.	*	*	*I"Tenore.	*	*	*I"Alto.	*	*	*I"Canto.	*	*	*I"Cornuo Secondo. ex g.	*I"Cornuo Primo. ex g.
*mI"Basso pro organo	*	*mI"Viola obligata	*mI"Violino II	*mI"Violino I	*mI"Basso	*	*	*mI"Tenore	*	*	*mI"Alto	*	*	*mI"Soprano	*	*	*mI"Corno II in G	*mI"Corno I in G
*I'org	*	*I'vla	*I'vl II	*I'vl I	*I'B	*	*	*I'T	*	*	*I'A	*	*	*I'S	*	*	*I'cor II in G	*I'cor I in G
*	*	*Iviola	*Ivioln	*Ivioln	*Ibass	*	*	*Itenor	*	*	*Ialto	*	*	*Isoprn	*	*	*Icor	*Icor
*ICklav	*	*ICstr	*ICstr	*ICstr	*ICvox	*	*	*ICvox	*	*	*ICvox	*	*	*ICvox	*	*	*ICbras	*ICbras
*clefF4	*	*clefC3	*clefG2	*clefG2	*clefF4	*	*	*clefC4	*	*	*clefC3	*	*	*clefC1	*	*	*clefG2	*clefG2
*	*	*	*	*	*	*	*	*mclefGv2	*	*	*mclefG2	*	*	*mclefG2	*	*	*	*
*	*	*	*	*	*	*	*	*	*	*	*	*	*	*	*	*	*ITrd3c5	*ITrd3c5
*k[f#]	*	*k[f#]	*k[f#]	*k[f#]	*k[f#]	*	*	*k[f#]	*	*	*k[f#]	*	*	*k[f#]	*	*	*k[f#]	*k[f#]
*G:	*	*G:	*G:	*G:	*G:	*	*	*G:	*	*	*G:	*	*	*G:	*	*	*G:	*G:
*M4/4	*	*M4/4	*M4/4	*M4/4	*M4/4	*	*	*M4/4	*	*	*M4/4	*	*	*M4/4	*	*	*M4/4	*M4/4
*met(c)	*	*met(c)	*met(c)	*met(c)	*met(c)	*	*	*met(c)	*	*	*met(c)	*	*	*met(c)	*	*	*met(c)	*met(c)
*mmet(c)	*	*mmet(c)	*mmet(c)	*mmet(c)	*mmet(c)	*	*	*mmet(c)	*	*	*mmet(c)	*	*	*mmet(c)	*	*	*mmet(c)	*mmet(c)
=1	=1	=1	=1	=1	=1	=1	=1	=1	=1	=1	=1	=1	=1	=1	=1	=1	=1	=1
!	!	!	!	!LO:TX:a:i:t=t.:mod=	!	!	!	!	!	!	!	!	!	!	!	!	!	!
!	!	!	!LO:MO:mod=!null:null	!LO:MO:mod=!null:null	!	!	!	!	!	!	!	!	!	!	!	!	!	!
!	!	!	!LO:N:n=2:vis=8	!LO:N:n=2:vis=8	!	!	!	!	!	!	!	!	!	!	!	!	!	!
!	!	!	!LO:MO:mod=!null:null	!LO:MO:mod=!null:null	!	!	!	!	!	!	!	!	!	!	!	!	!	!
!	!	!	!LO:N:n=3:vis=8	!LO:N:n=3:vis=8	!	!	!	!	!	!	!	!	!	!	!	!	!	!
!	!	!	!LO:MO:mod=!null:null	!LO:MO:mod=!null:null	!	!	!	!	!	!	!	!	!	!	!	!	!	!
!LO:MO:mod=!LO&colon;TX&colon;b&colon;t=Solo	!	!	!LO:N:n=4:vis=8	!LO:N:n=4:vis=8	!	!	!	!	!	!	!	!	!	!	!	!	!	!
!LO:TX:b:i:t=Allegro e solo.	!	!LO:TX:a:Bi:t=Allegro.:mod=	!LO:TX:a:i:t=Allegro.:mod=	!LO:TX:a:Bi:t=Allegro:mod=	!LO:TX:a:Bi:t=Allo.:mod=	!	!	!LO:TX:a:Bi:t=Allo:mod=	!	!	!LO:TX:a:Bi:t=Allo.:mod=	!	!	!LO:TX:a:Bi:t=Allo.:mod=	!	!	!LO:TX:b:t=Allegro.:mod=	!LO:TX:b:B:t=Allegro.:mod=
!	!	!	!	!LO:SIC:o=8.ggL 8.b 8.d 8.G/	!	!	!	!	!	!	!	!	!	!	!	!	!	!
4G\	.	4b\	8.ggL 8.b 8.d 8.GT/	8.ggL 8.b 8.d 8.GT/	00r	.	.	00r	.	.	00r	.	.	00r	.	.	4b\	4dd\
.	.	.	32ff#/LL	32ff#/LL	.	.	.	.	.	.	.	.	.	.	.	.	.	.
.	.	.	32ee/JJJ	32ee/JJJ	.	.	.	.	.	.	.	.	.	.	.	.	.	.
4F#\	6	8a\L	16dd/LL	16dd/LL	.	.	.	.	.	.	.	.	.	.	.	.	4r	4r
.	.	.	16cc/	16cc/	.	.	.	.	.	.	.	.	.	.	.	.	.	.
.	.	8dd\J	16b/	16b/	.	.	.	.	.	.	.	.	.	.	.	.	.	.
.	.	.	16a/JJ	16a/JJ	.	.	.	.	.	.	.	.	.	.	.	.	.	.
.	.	.	8qqa/	8qqa/	.	.	.	.	.	.	.	.	.	.	.	.	.	.
8.G\L	.	8.g\L	8.g/L	8.g/L	.	.	.	.	.	.	.	.	.	.	.	.	4r	4r
32F#\LL	.	32f#\LL	32f#/LL	32f#/LL	.	.	.	.	.	.	.	.	.	.	.	.	.	.
32E\JJJ	.	32e\JJJ	32e/JJJ	32e/JJJ	.	.	.	.	.	.	.	.	.	.	.	.	.	.
!LO:MO:mod=!LO&colon;TX&colon;b&colon;t=unis.	!	!	!	!	!	!	!	!	!	!	!	!	!	!	!	!	!	!
!LO:TX:b:i:t=Uniſsoni	!	!	!	!	!	!	!	!	!	!	!	!	!	!	!	!	!	!
16D/LL	.	16d\LL	16d/LL	16d/LL	.	.	.	.	.	.	.	.	.	.	.	.	16dd\LL	16dd\LL
16C/	.	16c\	16c/	16c/	.	.	.	.	.	.	.	.	.	.	.	.	16cc\	16cc\
16BB/	.	16B\	16B/	16B/	.	.	.	.	.	.	.	.	.	.	.	.	16b\	16b\
16AA/JJ	.	16A\JJ	16A/JJ	16A/JJ	.	.	.	.	.	.	.	.	.	.	.	.	16a\JJ	16a\JJ
=2	=2	=2	=2	=2	=2	=2	=2	=2	=2	=2	=2	=2	=2	=2	=2	=2	=2	=2
!LO:TX:t=P:problem=mixed beam	!	!	!	!	!	!	!	!	!	!	!	!	!	!	!	!	!	!LO:SIC:o=8g\L
8GG/L	.	8G/L|	8G/L|	8G/L|	.	.	.	.	.	.	.	.	.	.	.	.	8g/L|	8g\L|
8d\|	.	8d/|	8d/|	8d/|	.	.	.	.	.	.	.	.	.	.	.	.	8d/|	8dd\|
8B\|	.	8B/|	8B/|	8B/|	.	.	.	.	.	.	.	.	.	.	.	.	8B/|	8b\|
8G\J|	.	8G/J|	8G/J|	8G/J|	.	.	.	.	.	.	.	.	.	.	.	.	8G/J|	8g\J|
!	!	!LO:TX:t=P:problem=mixed beam	!LO:TX:t=P:problem=mixed beam	!LO:TX:t=P:problem=mixed beam	!	!	!	!	!	!	!	!	!	!	!	!	!	!LO:TX:t=P:problem=mixed beam
8d\L	.	8d\L	8dd\L	8dd\L	.	.	.	.	.	.	.	.	.	.	.	.	8d/L	8dd\L
8D\J	.	8D/J	8d/J	8d/J	.	.	.	.	.	.	.	.	.	.	.	.	8D/J	8d/J
4r	.	4r	16r	16r	.	.	.	.	.	.	.	.	.	.	.	.	4r	4r
.	.	.	(32d/LLL	(32d/LLL	.	.	.	.	.	.	.	.	.	.	.	.	.	.
.	.	.	32e/	32e/	.	.	.	.	.	.	.	.	.	.	.	.	.	.
.	.	.	32f#/	32f#/	.	.	.	.	.	.	.	.	.	.	.	.	.	.
.	.	.	32g/	32g/	.	.	.	.	.	.	.	.	.	.	.	.	.	.
.	.	.	32a/	32a/	.	.	.	.	.	.	.	.	.	.	.	.	.	.
.	.	.	32b/JJJ)	32b/JJJ)	.	.	.	.	.	.	.	.	.	.	.	.	.	.
=3	=3	=3	=3	=3	=3	=3	=3	=3	=3	=3	=3	=3	=3	=3	=3	=3	=3	=3
!	!	!	!LO:TX:t=P:problem=mixed beam	!LO:TX:t=P:problem=mixed beam	!	!	!	!	!	!	!	!	!	!	!	!	!	!
8D\L	7	16d\LL	16cc\LL	16cc\LL	.	.	.	.	.	.	.	.	.	.	.	.	1a	1cc
.	.	16f#\	16d/	16d/	.	.	.	.	.	.	.	.	.	.	.	.	.	.
8D\	.	16d\	16d/	16d/	.	.	.	.	.	.	.	.	.	.	.	.	.	.
.	.	16f#\JJ	16d/JJ	16d/JJ	.	.	.	.	.	.	.	.	.	.	.	.	.	.
8D\	.	16d\LL	16f#/LL	16f#/LL	.	.	.	.	.	.	.	.	.	.	.	.	.	.
.	.	16f#\	16d/	16d/	.	.	.	.	.	.	.	.	.	.	.	.	.	.
8D\J	.	16d\	16a/	16a/	.	.	.	.	.	.	.	.	.	.	.	.	.	.
.	.	16f#\JJ	16f#/JJ	16f#/JJ	.	.	.	.	.	.	.	.	.	.	.	.	.	.
8D\L	7	16d\LL	16cc\LL	16cc\LL	.	.	.	.	.	.	.	.	.	.	.	.	.	.
.	.	16f#\	16a\	16a\	.	.	.	.	.	.	.	.	.	.	.	.	.	.
8D\	.	16d\	16ff#\	16ff#\	.	.	.	.	.	.	.	.	.	.	.	.	.	.
.	.	16f#\JJ	16cc\JJ	16cc\JJ	.	.	.	.	.	.	.	.	.	.	.	.	.	.
8D\	.	16d\LL	16aa\LL|	16aa\LL|	.	.	.	.	.	.	.	.	.	.	.	.	.	.
.	.	16f#\	(16cc\	(16cc\	.	.	.	.	.	.	.	.	.	.	.	.	.	.
8D\J	.	16d\	16b\	16b\	.	.	.	.	.	.	.	.	.	.	.	.	.	.
.	.	16f#\JJ	16a\JJ)	16a\JJ)	.	.	.	.	.	.	.	.	.	.	.	.	.	.
!	!	!	!LO:LB:g=original	!	!	!	!	!	!	!	!	!	!	!	!	!	!	!
=4	=4	=4	=4	=4	=4	=4	=4	=4	=4	=4	=4	=4	=4	=4	=4	=4	=4	=4
8D\L	6 4	16d\LL	16b/LL	16b/LL	.	.	.	.	.	.	.	.	.	.	.	.	1g	1b
.	.	16g\	16d/	16d/	.	.	.	.	.	.	.	.	.	.	.	.	.	.
8D\	.	16d\	16d/	16d/	.	.	.	.	.	.	.	.	.	.	.	.	.	.
.	.	16g\JJ	16d/JJ	16d/JJ	.	.	.	.	.	.	.	.	.	.	.	.	.	.
8D\	.	16d\LL	16g/LL	16g/LL	.	.	.	.	.	.	.	.	.	.	.	.	.	.
.	.	16g\	16d/	16d/	.	.	.	.	.	.	.	.	.	.	.	.	.	.
8D\J	.	16d\	16b/	16b/	.	.	.	.	.	.	.	.	.	.	.	.	.	.
.	.	16g\JJ	16g/JJ	16g/JJ	.	.	.	.	.	.	.	.	.	.	.	.	.	.
8D\L	6 4	16d\LL	16dd\LL	16dd\LL	.	.	.	.	.	.	.	.	.	.	.	.	.	.
.	.	16g\	16b\	16b\	.	.	.	.	.	.	.	.	.	.	.	.	.	.
8D\	.	16d\	16gg\	16gg\	.	.	.	.	.	.	.	.	.	.	.	.	.	.
.	.	16g\JJ	16dd\JJ	16dd\JJ	.	.	.	.	.	.	.	.	.	.	.	.	.	.
8D\	.	16d\LL	16bb\LL|	16bb\LL|	.	.	.	.	.	.	.	.	.	.	.	.	.	.
.	.	16g\	(16dd\	(16dd\	.	.	.	.	.	.	.	.	.	.	.	.	.	.
8D\J	.	16d\	16cc\	16cc\	.	.	.	.	.	.	.	.	.	.	.	.	.	.
.	.	16g\JJ	16b\JJ)	16b\JJ)	.	.	.	.	.	.	.	.	.	.	.	.	.	.
!	!	!LO:LB:g=original	!	!LO:LB:g=original	!	!	!	!	!	!	!	!	!	!	!	!	!	!
=5	=5	=5	=5	=5	=5	=5	=5	=5	=5	=5	=5	=5	=5	=5	=5	=5	=5	=5
8D\L	8 6	16D/LL	16bb 16dd 16d/	16bb 16dd 16d/	00r	.	.	00r	.	.	00r	.	.	00r	.	.	1b	1dd
.	.	16G/	16d/LL	16d/LL	.	.	.	.	.	.	.	.	.	.	.	.	.	.
8D\	.	16D/	16d/	16d/	.	.	.	.	.	.	.	.	.	.	.	.	.	.
.	.	16G/JJ	16d/JJ	16d/JJ	.	.	.	.	.	.	.	.	.	.	.	.	.	.
8D\	.	16D/LL	16g/LL	16g/LL	.	.	.	.	.	.	.	.	.	.	.	.	.	.
.	.	16G/	16d/	16d/	.	.	.	.	.	.	.	.	.	.	.	.	.	.
8D\J	.	16D/	16b/	16b/	.	.	.	.	.	.	.	.	.	.	.	.	.	.
.	.	16G/JJ	16g/JJ	16g/JJ	.	.	.	.	.	.	.	.	.	.	.	.	.	.
8D\L	6 8	16D/LL	16dd\LL	16dd\LL	.	.	.	.	.	.	.	.	.	.	.	.	.	.
.	.	16G/	16b\	16b\	.	.	.	.	.	.	.	.	.	.	.	.	.	.
8D\	.	16D/	16gg\	16gg\	.	.	.	.	.	.	.	.	.	.	.	.	.	.
.	.	16G/JJ	16dd\JJ	16dd\JJ	.	.	.	.	.	.	.	.	.	.	.	.	.	.
8D\	.	16D/LL	16bb\LL|	16bb\LL|	.	.	.	.	.	.	.	.	.	.	.	.	.	.
.	.	16G/	(16dd\	(16dd\	.	.	.	.	.	.	.	.	.	.	.	.	.	.
8D\J	.	16D/	16cc\	16cc\	.	.	.	.	.	.	.	.	.	.	.	.	.	.
.	.	16G/JJ	16b\JJ)	16b\JJ)	.	.	.	.	.	.	.	.	.	.	.	.	.	.
=6	=6	=6	=6	=6	=6	=6	=6	=6	=6	=6	=6	=6	=6	=6	=6	=6	=6	=6
8D\L	7 5	16D/LL	16aa 16cc 16d/	16aa 16cc 16d/	.	.	.	.	.	.	.	.	.	.	.	.	1a	1cc
.	.	16F#/	16d/LL	16d/LL	.	.	.	.	.	.	.	.	.	.	.	.	.	.
8D\	.	16D/	16d/	16d/	.	.	.	.	.	.	.	.	.	.	.	.	.	.
.	.	16F#/JJ	16d/JJ	16d/JJ	.	.	.	.	.	.	.	.	.	.	.	.	.	.
8D\	.	16D/LL	16f#/LL	16f#/LL	.	.	.	.	.	.	.	.	.	.	.	.	.	.
.	.	16F#/	16d/	16d/	.	.	.	.	.	.	.	.	.	.	.	.	.	.
8D\J	.	16D/	16a/	16a/	.	.	.	.	.	.	.	.	.	.	.	.	.	.
.	.	16F#/JJ	16f#/JJ	16f#/JJ	.	.	.	.	.	.	.	.	.	.	.	.	.	.
8D\L	7	16D/LL	16cc\LL	16cc\LL	.	.	.	.	.	.	.	.	.	.	.	.	.	.
.	.	16F#/	16a\	16a\	.	.	.	.	.	.	.	.	.	.	.	.	.	.
8D\	.	16D/	16ff#\	16ff#\	.	.	.	.	.	.	.	.	.	.	.	.	.	.
.	.	16F#/JJ	16cc\JJ	16cc\JJ	.	.	.	.	.	.	.	.	.	.	.	.	.	.
!	!	!	!	!LO:SIC:o=16aa\LL	!	!	!	!	!	!	!	!	!	!	!	!	!	!
8D\	.	16D/LL	16aa\LL|	16aa\LL|	.	.	.	.	.	.	.	.	.	.	.	.	.	.
.	.	16F#/	(16cc\	(16cc\	.	.	.	.	.	.	.	.	.	.	.	.	.	.
8D\J	.	16D/	16b\	16b\	.	.	.	.	.	.	.	.	.	.	.	.	.	.
.	.	16F#/JJ	16a\JJ)	16a\JJ)	.	.	.	.	.	.	.	.	.	.	.	.	.	.
!LO:LB:g=original	!	!	!	!	!	!	!	!	!	!	!	!	!	!	!	!	!	!
=7	=7	=7	=7	=7	=7	=7	=7	=7	=7	=7	=7	=7	=7	=7	=7	=7	=7	=7
4G\	.	4G/	16b\LL	16b\LL	.	.	.	.	.	.	.	.	.	.	.	.	4g\	4b\
.	.	.	16gg\	16gg\	.	.	.	.	.	.	.	.	.	.	.	.	.	.
.	.	.	16ff#\	16ff#\	.	.	.	.	.	.	.	.	.	.	.	.	.	.
.	.	.	16ee\JJ	16ee\JJ	.	.	.	.	.	.	.	.	.	.	.	.	.	.
8r	.	8r	16dd\LL	16dd\LL	.	.	.	.	.	.	.	.	.	.	.	.	8r	8r
.	.	.	16cc\	16cc\	.	.	.	.	.	.	.	.	.	.	.	.	.	.
8D\	7	8f#\	16b\	16b\	.	.	.	.	.	.	.	.	.	.	.	.	8a\	8cc\
.	.	.	16a\JJ	16a\JJ	.	.	.	.	.	.	.	.	.	.	.	.	.	.
!	!	!	!LO:LB:g=original	!	!	!	!	!	!	!	!	!	!	!	!	!	!	!
8E\L	5	8g\L	8.g/L	8.g/L	.	.	.	.	.	.	.	.	.	.	.	.	4g\	4b\
8BB\	6	8d\	.	.	.	.	.	.	.	.	.	.	.	.	.	.	.	.
.	.	.	16a/Jk	16a/Jk	.	.	.	.	.	.	.	.	.	.	.	.	.	.
8C\	6	8e\	4aT/	4aT/	.	.	.	.	.	.	.	.	.	.	.	.	8r	4aT\
8D\J	.	8f#\J	.	.	.	.	.	.	.	.	.	.	.	.	.	.	8d/	.
=8	=8	=8	=8	=8	=8	=8	=8	=8	=8	=8	=8	=8	=8	=8	=8	=8	=8	=8
8GG/L	.	8g\L	(16b/LL	(16b\LL	.	.	.	.	.	.	.	.	.	.	.	.	4g\	8.b\L
.	.	.	16dd/)	16dd\)	.	.	.	.	.	.	.	.	.	.	.	.	.	.
8BB/	.	8d\	16g/|	16g\|	.	.	.	.	.	.	.	.	.	.	.	.	.	.
.	.	.	16a/JJ|	16a\JJ|	.	.	.	.	.	.	.	.	.	.	.	.	.	16cc\Jk
.	.	.	.	.	.	.	.	.	.	.	.	.	.	.	.	.	.	8qqb/
8C/	.	8e\	4aT/	4aT/	.	.	.	.	.	.	.	.	.	.	.	.	8r	4aT\
8D/J	.	8f#\J	.	.	.	.	.	.	.	.	.	.	.	.	.	.	8d/	.
!LO:TX:t=P:problem=mixed beam	!	!	!	!	!	!	!	!	!	!	!	!	!	!	!	!	!	!
8G\L	.	8g\L	(16b/LL	(16b\LL	.	.	.	.	.	.	.	.	.	.	.	.	4g\	4b\
.	.	.	16dd/)	16dd\)	.	.	.	.	.	.	.	.	.	.	.	.	.	.
8BB/	.	8d\	16g/|	16g\|	.	.	.	.	.	.	.	.	.	.	.	.	.	.
.	.	.	16a/JJ|	16a\JJ|	.	.	.	.	.	.	.	.	.	.	.	.	.	.
8C/	.	8e\	4aT/	4aT/	.	.	.	.	.	.	.	.	.	.	.	.	8r	4aT\
8D/J	.	8f#\J	.	.	.	.	.	.	.	.	.	.	.	.	.	.	8d/	.
!	!	!	!	!	!	!	!	!	!	!	!	!	!	!	!	!	!LO:LB:g=original	!
=9	=9	=9	=9	=9	=9	=9	=9	=9	=9	=9	=9	=9	=9	=9	=9	=9	=9	=9
!	!	!	!	!LO:MO:mod=!null:null	!	!	!	!	!	!	!	!	!	!	!	!	!	!
!	!	!	!	!LO:N:n=4:vis=8	!	!	!	!	!	!	!	!	!	!	!	!	!	!
!	!	!	!	!LO:MO:mod=!null:null	!	!	!	!	!	!	!	!	!	!	!	!	!	!
!	!	!	!	!LO:N:n=3:vis=8	!	!	!	!	!	!	!	!	!	!	!	!	!	!
!	!	!	!	!LO:MO:mod=!null:null	!	!	!	!	!	!	!	!	!	!	!	!	!	!
!	!	!	!	!LO:N:n=2:vis=8	!	!	!	!	!	!	!	!	!	!	!	!	!	!
4GG/	.	4g\	8.ggL 8.b 8.d 8.GT/	8.ggL 8.b 8.d 8.GT/	0r	.	.	0r	.	.	0r	.	.	0r	.	.	4B/	4g\
.	.	.	32ff#/LL	32ff#/LL	.	.	.	.	.	.	.	.	.	.	.	.	.	.
.	.	.	32ee/JJJ	32ee/JJJ	.	.	.	.	.	.	.	.	.	.	.	.	.	.
4r	.	4r	16dd/LL	16dd/LL	.	.	.	.	.	.	.	.	.	.	.	.	4r	4r
.	.	.	16cc/	16cc/	.	.	.	.	.	.	.	.	.	.	.	.	.	.
.	.	.	16b/	16b/	.	.	.	.	.	.	.	.	.	.	.	.	.	.
.	.	.	16a/JJ	16a/JJ	.	.	.	.	.	.	.	.	.	.	.	.	.	.
!	!	!	!	!LO:LB:g=original	!	!	!	!	!	!	!	!	!	!	!	!	!	!
.	.	.	8qqa/	8qqa/	.	.	.	.	.	.	.	.	.	.	.	.	.	.
8.G\L	.	8.g\L	8.g/L	8.g/L	.	.	.	.	.	.	.	.	.	.	.	.	4r	4r
32F#\LL	.	32f#\LL	32f#/LL	32f#/LL	.	.	.	.	.	.	.	.	.	.	.	.	.	.
32E\JJJ	.	32e\JJJ	32e/JJJ	32e/JJJ	.	.	.	.	.	.	.	.	.	.	.	.	.	.
16D/LL	.	16d\LL	16d/LL	16d/LL	.	.	.	.	.	.	.	.	.	.	.	.	16dd\LL	16dd\LL
16C/	.	16c\	16c/	16c/	.	.	.	.	.	.	.	.	.	.	.	.	16cc\	16cc\
16BB/	.	16B\	16B/	16B/	.	.	.	.	.	.	.	.	.	.	.	.	16b\	16b\
16AA/JJ	.	16A\JJ	16A/JJ	16A/JJ	.	.	.	.	.	.	.	.	.	.	.	.	16a\JJ	16a\JJ
!	!	!LO:LB:g=original	!	!	!	!	!	!	!	!	!	!	!	!	!	!	!	!LO:LB:g=original
=10	=10	=10	=10	=10	=10	=10	=10	=10	=10	=10	=10	=10	=10	=10	=10	=10	=10	=10
8GG/L	.	8G/L	8ggL 8b 8d 8G/	8ggL 8b 8d 8G/	.	.	.	.	.	.	.	.	.	.	.	.	8.g\L	8.b\L
8BB/	6	8d/J	8gg/J|	8gg/J|	.	.	.	.	.	.	.	.	.	.	.	.	.	.
.	.	.	.	.	.	.	.	.	.	.	.	.	.	.	.	.	16b\Jk	16dd\Jk
.	.	.	.	.	.	.	.	.	.	.	.	.	.	.	.	.	8qqb/	8qqdd/
8D/	7 4	8A/L	8ggL 8a 8d/	8ggL 8a 8d/	.	.	.	.	.	.	.	.	.	.	.	.	4a\	4cc\
8DD/J	3	8d/J	8ff#/J|	8ff#/J|	.	.	.	.	.	.	.	.	.	.	.	.	.	.
!LO:TX:t=P:problem=mixed beam	!	!	!	!	!	!	!	!	!	!	!	!	!	!	!	!	!	!
8GG/L	.	8B/L	8ggL 8b 8d 8G/	8ggL 8b 8d 8G/	.	.	.	.	.	.	.	.	.	.	.	.	8.g\L	8.b\L
8B\	.	8d/J	8gg/J|	8gg/J|	.	.	.	.	.	.	.	.	.	.	.	.	.	.
.	.	.	.	.	.	.	.	.	.	.	.	.	.	.	.	.	16b\Jk	16dd\Jk
.	.	.	.	.	.	.	.	.	.	.	.	.	.	.	.	.	8qqb/	8qqdd/
8d\	7 4	8A/L	8ggL 8a 8d/	8ggL 8a 8d/	.	.	.	.	.	.	.	.	.	.	.	.	4a\	4cc\
!	!	!	!	!LO:SIC:o=8ff#t/J	!	!	!	!	!	!	!	!	!	!	!	!	!	!
8D\J	3	8d/J	8ff#|/J	8ff#|/J	.	.	.	.	.	.	.	.	.	.	.	.	.	.
=11	=11	=11	=11	=11	=11	=11	=11	=11	=11	=11	=11	=11	=11	=11	=11	=11	=11	=11
!LO:TX:t=P:problem=mixed beam	!	!	!	!	!	!	!	!	!	!	!	!	!	!	!	!	!	!
8G\L	.	8B/L	8ggL 8b 8d 8G/	8ggL 8b 8d 8G/	2r	.	.	2r	.	.	2r	.	.	2r	.	.	8.g\L	8.b\L
8BB/J	.	8d/	8gg/J|	8gg/J|>	.	.	.	.	.	.	.	.	.	.	.	.	.	.
.	.	.	.	.	.	.	.	.	.	.	.	.	.	.	.	.	16b\Jk	16dd\Jk
!	!	!	!	!	!	!	!	!	!	!	!	!	!	!	!	!	!LO:TX:t=P:problem=mixed beam	!
8D/L	7 4	8A/	8ggL 8a 8d/	8ggL 8a 8d/	.	.	.	.	.	.	.	.	.	.	.	.	8a\L	8cc\L
8DD/J	3	8d/J	8ff#/J|	8ff#/J|>	.	.	.	.	.	.	.	.	.	.	.	.	8d/J	8a\J
4GG/	.	4d\	4gg 4b 4d 4G/	4gg 4b 4d 4G/	4r	.	.	4r	.	.	4r	.	.	4r	.	.	4B/	4g\
!!LO:TX:a:B:t=Adagio
!LO:TX:b:Bi:t=adagio.:mod=	!	!	!	!LO:TX:b:t=adagio.:mod=	!LO:TX:a:Bi:t=adagio:mod=	!	!	!LO:TX:a:i:t=adagio.:mod=	!	!	!LO:TX:a:i:t=adagio:mod=	!	!	!LO:TX:a:i:t=adagio:mod=	!	!	!LO:TX:b:t=adagio:mod=	!LO:TX:b:t=adagio.:mod=
4r	.	4r	4r	4r	4G\	Ma-	Ma-	4B\	Ma-	Ma-	4d\	Ma-	Ma-	4g/	Ma-	Ma-	4r	4r
!	!	!	!LO:LB:g=original	!	!	!	!	!	!	!	!	!	!	!	!	!	!	!
=12	=12	=12	=12	=12	=12	=12	=12	=12	=12	=12	=12	=12	=12	=12	=12	=12	=12	=12
!	!	!LO:TX:a:Bi:t=adagio:mod=	!LO:TX:b:t=adagio.:mod=	!	!	!	!	!	!	!	!	!	!	!	!	!	!	!
2r	.	2r	2r	2r	4.G\	-gni-	-gni-	4.B\	-gni-	-gni-	4.d\	-gni-	-gni-	4.g/	-gni-	-gni-	2r	2r
.	.	.	.	.	8G\	-fi-	-fi-	8B\	-fi-	-fi-	8d\	-fi-	-fi-	8g/	-fi-	-fi-	.	.
!LO:TX:b:t=tutti.:mod=Tutti	!	!	!	!	!	!	!	!	!	!	!	!	!	!	!	!	!	!
8.G\L	.	8r	8r	8r	4G\	-cat	-cat,	4B\	-cat	-cat,	4d\	-cat	-cat,	4g/	-cat.	-cat,	8r	8r
.	.	16.g\LL	16.b/LL	16.dd\LL	.	.	.	.	.	.	.	.	.	.	.	.	16.B/LL	16.d/LL
32F#\LL	.	.	.	.	.	.	.	.	.	.	.	.	.	.	.	.	.	.
32E\JJJ	.	32g\JJk	32b/JJk	32dd\JJk	.	.	.	.	.	.	.	.	.	.	.	.	32B/JJk	32d/JJk
16D/LL	6 4	(16g'\LL	(16b'/LL	(16dd'\LL	4r	.	.	4r	.	.	4r	.	.	4r	.	.	16B/LL	16d/LL
16C/	.	16g'\	16b'/	16dd'\	.	.	.	.	.	.	.	.	.	.	.	.	16B/	16d/
16BB/	.	16g'\	16b'/	16dd'\	.	.	.	.	.	.	.	.	.	.	.	.	16B/	16d/
16AA/JJ	.	16g'\JJ)	16b'/JJ)	16dd'\JJ)	.	.	.	.	.	.	.	.	.	.	.	.	16B/JJ	16d/JJ
!LO:LB:g=original	!	!	!	!	!	!	!	!	!	!	!	!	!	!	!	!	!	!
=13	=13	=13	=13	=13	=13	=13	=13	=13	=13	=13	=13	=13	=13	=13	=13	=13	=13	=13
4GG/	.	4g\	4b/	4dd\	4r	.	.	4r	.	.	4r	.	.	4r	.	.	4B/	4d/
4r	.	4r	4r	4r	4G\	Ma-	Ma-	4d\	Ma-	Ma-	4g\	Ma-	Ma-	4b\	Ma-	Ma-	4r	4r
2r	.	2r	2r	2r	4.G\	-gni-	-gni-	4.d\	-gni-	-gni-	4.g\	-gni-	-gni-	4.b\	-gni-	-gni-	2r	2r
.	.	.	.	.	8G\	-fi-	-fi-	8d\	-fi-	-fi-	8g\	-fi-	-fi-	8b\	-fi-	-fi-	.	.
!	!	!	!	!	!	!	!	!	!	!	!	!	!	!	!	!	!LO:LB:g=original	!
=14	=14	=14	=14	=14	=14	=14	=14	=14	=14	=14	=14	=14	=14	=14	=14	=14	=14	=14
8.G\L	.	1r	2r	2r	4G\	-cat	-cat	4d\	-cat	-cat	4g\	-cat	-cat	4b\	-cat.	-cat	8r	8r
.	.	.	.	.	.	.	.	.	.	.	.	.	.	.	.	.	16.B/LL	16.d/LL
32F#\LL	.	.	.	.	.	.	.	.	.	.	.	.	.	.	.	.	.	.
32E\JJJ	.	.	.	.	.	.	.	.	.	.	.	.	.	.	.	.	32B/JJk	32d/JJk
16D/LL	6 4	.	.	.	4r	.	.	4r	.	.	4r	.	.	4r	.	.	16B/LL	16d/LL
16C/	.	.	.	.	.	.	.	.	.	.	.	.	.	.	.	.	16B/	16d/
16BB/	.	.	.	.	.	.	.	.	.	.	.	.	.	.	.	.	16B/	16d/
16AA/JJ	.	.	.	.	.	.	.	.	.	.	.	.	.	.	.	.	16B/JJ	16d/JJ
4GG/	.	.	4b/	4dd\	2r	.	.	2r	.	.	4b\	a-	a-	4dd\	a-	a-	4B/	4d/
4r	.	.	8a/L	8cc\L	.	.	.	.	.	.	8a\	-ni-	-ni-	8cc\	-ni-	-ni-	4r	4r
.	.	.	8g/J	8b\J	.	.	.	.	.	.	8g\	-ma	-ma	8b\	-ma	-ma	.	.
=15	=15	=15	=15	=15	=15	=15	=15	=15	=15	=15	=15	=15	=15	=15	=15	=15	=15	=15
*clefC4	*	*	*	*	*	*	*	*	*	*	*	*	*	*	*	*	*	*
!	!	!	!	!	!	!	!	!	!	!	!	!	!	!	!	!	!LO:TX:a:t=3.:mod=	!LO:TX:a:t=3.:mod=
.	.	.	8qqg/	8qqb/	.	.	.	.	.	.	8qqg/	.	.	8qqb/	.	.	.	.
!LO:TX:b:t=solo.:mod=Solo	!	!	!	!	!	!	!	!	!	!	!	!	!	!	!	!	!	!
4d\	.	4d\	4.f#/	4.a/	0r	.	.	4d\	A-	a-	4.f#\	me-	me-	4.a\	me-	me-	0r	0r
8c\L	4 2	8c/L	.	.	.	.	.	8c\	-ni-	-ni-	.	.	.	.	.	.	.	.
8B\J	6	8B/J	8g/	8b/	.	.	.	8B\	-ma	-ma	8g\	-a	-a,	8b\	-a	-a,	.	.
4.A\	.	4.A/	4a/	4cc\	.	.	.	4.A\	me-	me-	4a\	a-	a-	4cc\	a-	a-	.	.
.	.	.	8g/L	8b/L	.	.	.	.	.	.	8g\	-ni-	-ni-	8b\	-ni-	-ni-	.	.
8B\	7	8B/	8f#/J	8a/J	.	.	.	8B\	-a	-a,	8f#\	-ma	-ma	8a\	-ma	-ma	.	.
!	!	!	!	!	!	!	!	!	!	!	!LO:LB:g=original	!	!	!LO:LB:g=original	!	!	!	!
=16	=16	=16	=16	=16	=16	=16	=16	=16	=16	=16	=16	=16	=16	=16	=16	=16	=16	=16
.	.	.	8qqf#/	8qqa/	.	.	.	.	.	.	8qqf#/	.	.	8qqa/	.	.	.	.
4c\	5	4c/	4.e/	4.g/	.	.	.	4c\	a-	a-	4.e\	me-	me-	4.g/	me-	me-	.	.
8B\L	4 2	8B/L	.	.	.	.	.	8B\	-ni-	-ni-	.	.	.	.	.	.	.	.
8A\J	6	8A/J	8f#/	8a/	.	.	.	8A\	-ma	-ma	8f#\	-a	-a,	8a\	-a	-a,	.	.
!	!	!	!	!	!	!	!	!LO:LB:g=original	!	!	!	!	!	!	!	!	!	!
4G/	.	4G/	8g/L	8b\L	.	.	.	8G/	me-	me-	8g\	me-	me-	8b\	me-	me-	.	.
.	.	.	8b/J	8dd\J	.	.	.	8G/	-a	-a,	8b\	-a	-a	8dd\	-a	-a	.	.
.	.	.	8qqb/	8qqdd/	.	.	.	.	.	.	8qqb/	.	.	8qqdd/	.	.	.	.
8.c\L	8 6	8.c/L	8.a/L	8.ccT\L	.	.	.	8.c\	Do-	Do-	8.a\	Do-	Do-	8.cc\	Do-	Do-	.	.
16c#X\Jk	7 5	16c#X/Jk	16g/Jk	16b\Jk	.	.	.	16c#X\	-mi-	-mi-	16g\	-mi-	-mi-	16b\	-mi-	-mi-	.	.
!	!	!	!	!LO:LB:g=original	!	!	!	!	!	!	!	!	!	!	!	!	!	!
=17	=17	=17	=17	=17	=17	=17	=17	=17	=17	=17	=17	=17	=17	=17	=17	=17	=17	=17
4d\	.	4d\	4f#/	4a/	4r	.	.	4d\	-num	-num,	4f#\	-num	-num,	4a\	-num	-num,	1r	1r
*clefF4	*	*	*	*	*	*	*	*	*	*	*	*	*	*	*	*	*	*
!LO:TX:b:t=Tutti	!	!	!	!	!	!	!	!	!	!	!	!	!	!	!	!	!	!
4F#\	6 5	4r	4r	4r	4F#\	Ma-	Ma-	4d\	Ma-	Ma-	4a\	Ma-	Ma-	4cc\	Ma-	Ma-	.	.
.	.	.	.	.	.	.	.	.	.	.	8qqa/	.	.	8qqcc/	.	.	.	.
!LO:TX:t=P:problem=mixed beam	!	!	!	!	!	!	!	!	!	!	!	!	!	!	!	!	!	!
8G\L	.	2r	2r	2r	4.G\	-gni-	-gni-	4.d\	-gni-	-gni-	4.g\	-gni-	-gni-	4.b\	-gni-	-gni-	.	.
8GG/	.	.	.	.	.	.	.	.	.	.	.	.	.	.	.	.	.	.
8BB/	6	.	.	.	.	.	.	.	.	.	.	.	.	.	.	.	.	.
!	!	!	!	!	!	!	!	!	!	!	!LO:TX:t=P:problem=brak kreski taktowej	!	!	!	!	!	!	!
8GG/J	.	.	.	.	8G\	-fi-	-fi-	8d\	-fi-	-fi-	8g\	-fi-	-fi-	8b\	-fi-	-fi-	.	.
!	!	!LO:LB:g=original	!	!	!	!	!	!	!	!	!	!	!	!	!	!	!	!
=18	=18	=18	=18	=18	=18	=18	=18	=18	=18	=18	=18	=18	=18	=18	=18	=18	=18	=18
8D\L	.	8f#\L	4r	4r	4D/	-cat	-cat.	4d\	-cat	-cat.	4f#\	-cat	-cat.	4a\	-cat	-cat.	4r	4r
8E\	.	8g\	.	.	.	.	.	.	.	.	.	.	.	.	.	.	.	.
!LO:TX:b:t=solo.:mod=Solo	!	!	!	!	!	!	!	!	!	!	!	!	!	!	!	!	!	!
8F#\	6 5	8d\	4.aa\	4ccc\	4r	.	.	4r	.	.	4r	.	.	4r	.	.	4a\	4cc\
8D\J	.	8f#\J	.	.	.	.	.	.	.	.	.	.	.	.	.	.	.	.
.	.	.	.	8qqccc/	.	.	.	.	.	.	.	.	.	.	.	.	8qqa/	8qqcc/
8G\L	3 9	8d\L	.	4.bb\	2r	.	.	2r	.	.	2r	.	.	2r	.	.	4.g\	4.b\
8A\	.	8c\	8dd\	.	.	.	.	.	.	.	.	.	.	.	.	.	.	.
8B\	6	8d\	4gg\	.	.	.	.	.	.	.	.	.	.	.	.	.	.	.
8G\J	.	8d\J	.	8bb\	.	.	.	.	.	.	.	.	.	.	.	.	8g\	8b\
!LO:LB:g=original	!	!	!LO:LB:g=original	!	!LO:LB:g=original	!	!	!	!	!	!	!	!	!	!	!	!	!
=19	=19	=19	=19	=19	=19	=19	=19	=19	=19	=19	=19	=19	=19	=19	=19	=19	=19	=19
1D	8 3	1d	8ff#\	8aa\L	1r	.	.	1r	.	.	1r	.	.	1r	.	.	4d/	4a\
.	7	.	4a/	8cc\J	.	.	.	.	.	.	.	.	.	.	.	.	.	.
.	.	.	.	8qqcc/	.	.	.	.	.	.	.	.	.	.	.	.	.	.
.	.	.	.	4bt/	.	.	.	.	.	.	.	.	.	.	.	.	4r	4r
.	6 5	.	[8g/	.	.	.	.	.	.	.	.	.	.	.	.	.	.	.
!	!	!	!	!	!	!	!	!	!	!	!	!	!	!	!	!	!	!LO:LB:g=original
.	.	.	8g/L]	2aT/	.	.	.	.	.	.	.	.	.	.	.	.	2r	2r
.	6 4	.	16f#/L	.	.	.	.	.	.	.	.	.	.	.	.	.	.	.
.	5 4	.	16e/JJ	.	.	.	.	.	.	.	.	.	.	.	.	.	.	.
.	3	.	4f#t/	.	.	.	.	.	.	.	.	.	.	.	.	.	.	.
==	==	==	==	==	==	==	==	==	==	==	==	==	==	==	==	==	==	==
*-	*-	*-	*-	*-	*-	*-	*-	*-	*-	*-	*-	*-	*-	*-	*-	*-	*-	*-
!!!system-decoration: [(g1)][(g2)][(g3)]<s10>
!!!RDF**kern: > = above
!!!RDF**kern: < = below
!!!RDF**kern: | = vertical stroke
!!!filter-modern: sic -sq | shed -e "s/LO:DY:(a|b|rj)/LO:dy:$1/L" | autostem -r | tie -s | shed -k -e "s/([\(\)\[\]])[><]/$1/g" | shed -e "s/N:vis=/N:VIS=/L" | shed -e "s/TX(.*):t=P:/tx$1:t=P:/LG" | shed -e "s/^(\d+[\/\\]right)/$1yy/I; s/^(\d+[\/\\]left)/$1yy/I" | modori -m
!!!ENC: Andrzej Kubiczek
!!!END: 2022-03-28
!!!EED: Andrzej Kubiczek
!!!EEV: 2022-03-28
!!!ENC-modern: Katarzyna Serwa
!!!END-modern: 2022-09-26
